nameplates/ivy.svg

<svg width="994" height="453" viewBox="0 0 994 453" fill="none" xmlns="http://www.w3.org/2000/svg">
<g clip-path="url(#clip0_22600_280)">
<path d="M985.584 29.2953C967.409 28.041 946.189 32.6996 926.85 31.1766C917.628 30.4599 908.317 26.1597 899.184 25.5326C881.815 24.3679 862.744 30.1911 844.748 28.8473C842.241 28.6681 839.734 28.2202 837.227 27.6827C834.451 33.058 832.571 38.8812 831.228 44.794C831.765 45.869 832.571 46.9441 833.288 48.1087C836.869 53.9319 842.599 58.2322 846.18 64.0554C848.329 67.4597 853.522 78.6582 852.537 82.2417C851.463 86.094 834.362 104.907 830.333 110.014C826.304 115.21 823.528 121.392 819.141 126.588C809.83 137.607 795.684 145.76 786.372 157.137C775.539 170.396 763.362 196.287 748.32 204.529C745.545 206.052 741.963 207.934 739.188 205.425C729.339 193.241 720.834 177.026 709.731 166.006C698.361 154.718 690.034 148.537 683.409 133.038C676.962 117.987 671.68 116.733 664.069 104.012C655.564 89.6775 641.776 60.0239 653.684 45.5107C660.578 37.179 664.427 37.0894 673.381 34.133C675.44 33.4163 676.783 30.9974 678.305 28.9369C678.484 25.443 678.574 21.9491 678.395 18.4551C673.918 17.9176 669.531 17.6488 665.054 17.3801L664.875 17.7384C664.875 17.7384 663.98 17.3801 663.622 17.2905C661.115 17.1113 658.518 17.0217 656.011 16.9321L656.459 17.828C654.31 17.4697 652.34 17.6488 650.908 16.7529C649.475 16.7529 647.953 16.6634 646.521 16.5738C646.431 17.1113 646.252 17.828 645.805 17.9176C643.745 18.3655 641.865 16.9321 639.895 16.7529C639.985 16.5738 640.074 16.4842 640.164 16.305C639.537 16.305 638.91 16.305 638.194 16.2154C638.552 16.7529 638.821 17.3801 638.731 17.828C635.956 18.9926 634.523 17.2905 633.628 15.9467C618.139 14.9612 602.918 12.9007 588.324 6.7191C587.16 6.7191 585.996 6.7191 584.832 6.7191C569.074 7.34621 565.672 7.4358 550.183 4.83775C542.125 3.49393 533.44 3.67311 525.114 5.28569C525.114 5.28569 525.024 5.28569 524.934 5.28569C524.845 5.28569 524.666 5.28569 524.576 5.28569C524.487 5.28569 523.95 5.28569 524.397 5.28569C524.934 5.28569 523.681 5.1961 523.771 5.1961C523.323 5.1961 523.144 5.28569 522.786 5.37528C522.428 5.37528 522.159 5.46487 521.801 5.55446C520.547 5.73363 519.383 6.00239 518.219 6.18157C515.802 6.62951 513.295 7.07745 510.878 7.52539C506.043 8.33168 501.119 9.31715 496.284 10.0339C493.508 10.4818 490.822 10.9297 488.047 11.2881C488.584 11.2881 489.121 11.1089 489.658 11.1089C485.182 11.736 480.705 12.4527 476.228 13.0798C470.14 13.8861 464.052 14.6028 458.053 15.1404C457.426 15.1404 456.889 15.3195 456.262 15.4091C455.367 15.5883 454.651 16.0362 454.024 16.5738C452.95 17.3801 451.875 18.6343 451.696 19.9781C451.428 21.5011 451.159 23.1137 450.89 24.6367C450.801 25.3534 450.622 26.0701 450.532 26.8764C450.353 28.041 449.995 29.2953 449.995 30.4599C449.995 32.5204 450.801 34.581 452.233 36.0144C453.487 37.2686 454.919 37.8061 456.531 38.4332C457.963 38.9708 459.486 39.5979 460.918 40.1354C464.231 41.4792 467.544 42.7335 470.946 43.9877C469.961 49.0046 466.469 56.2612 465.932 60.8302C464.589 72.2975 465.932 81.1667 463.067 93.4402C458.769 112.075 450.801 134.292 445.339 153.375C438.624 176.936 429.581 201.842 424.209 225.582C422.508 232.929 416.509 281.306 412.928 282.292C412.122 282.471 409.974 282.471 409.347 282.023C399.23 259.268 394.395 234.273 385.531 210.89C381.144 199.244 374.071 188.045 369.504 175.861C362.163 156.6 358.671 136.174 351.956 116.733C348.016 105.266 342.018 94.7841 338.078 83.4064L243.71 106.699C246.575 116.464 251.678 125.692 255.618 135.278C259.736 145.312 259.468 154.539 262.87 164.752C265.556 172.994 272.45 180.52 276.121 188.135C283.373 203.365 285.253 220.834 290.984 236.602C293.849 244.396 298.146 251.115 300.653 259.088C304.503 271.541 305.04 283.994 309.786 296.536C311.397 300.836 314.262 304.868 315.874 309.258C316.859 311.945 318.023 321.442 319.634 321.8L325.812 320.994C317.844 326.011 316.59 335.955 325.812 339.897L323.753 341.061V342.495C328.05 353.335 341.48 374.926 341.391 385.945C341.391 397.95 309.696 417.122 334.139 419.809C354.284 422.049 370.758 413.807 389.649 415.33C405.318 416.584 411.496 415.599 426.269 415.33C433.163 415.24 443.817 417.659 450.711 417.569C458.501 417.39 468.26 414.792 476.228 414.255C482.675 413.807 489.211 415.061 495.657 414.255C500.85 408.252 473.99 392.664 470.14 389.26C449.816 371.432 467.364 357.725 471.304 337.119C472.916 328.609 473.095 319.56 474.617 310.96H445.16C437.013 310.96 432.715 316.514 426.269 317.589C409.974 320.098 391.619 321.352 374.966 322.965C373.354 323.144 372.101 324.129 372.459 321.621C373.892 318.664 414.271 302.628 420.538 299.761C428.059 296.357 435.938 293.401 443.101 290.175C451.607 286.323 471.752 273.691 479.541 273.154C481.332 273.064 482.943 273.602 484.465 274.318C488.942 260.163 490.195 245.381 492.613 230.779C493.329 226.568 496.642 216.534 496.642 213.757C496.642 211.517 493.15 206.231 492.613 202.379C492.165 199.154 491.897 195.033 492.613 191.808C494.762 181.505 508.818 181.236 509.893 178.011C511.863 164.663 511.236 151.045 514.19 137.876C518.219 119.421 524.218 104.46 531.381 87.3483C535.947 76.5977 536.484 64.5929 538.991 53.3048C546.781 62.5324 556.182 70.8641 563.165 80.7188C571.044 91.8277 575.7 105.445 583.937 116.554C597.815 135.188 613.572 154.002 627.54 172.905C635.419 183.655 639.806 197.541 647.864 208.023C654.847 217.161 663.622 223.701 670.784 234.004C672.486 236.423 675.709 244.127 676.783 245.202C678.932 247.263 683.946 246.188 686.811 246.815C689.586 247.442 692.362 250.219 695.048 250.757C703.195 252.459 722.356 247.442 730.682 244.665C733.816 243.59 736.591 240.723 739.456 240.096C742.68 239.469 747.335 241.081 748.589 240.454C750.648 239.469 751.275 235.437 753.066 233.825C754.05 232.929 773.3 221.82 775.539 220.834C787.536 215.28 803.204 213.399 815.112 207.127C824.155 196.287 831.139 183.834 839.107 172.278C841.346 169.052 850.478 159.556 851.284 157.675C851.821 156.421 850.299 149.522 851.194 145.401C852.269 140.295 860.148 130.798 865.072 129.275C867.937 128.38 872.324 129.455 873.757 128.559C874.025 128.38 875.189 125.871 876.174 124.886C882.262 118.704 889.246 112.702 895.871 109.118C899.9 106.968 899.095 105.176 899.542 101.055L902.318 104.37C911.898 95.6799 917.091 85.3773 928.103 77.9415C931.327 75.7018 959.53 59.576 961.499 59.1281C970.005 56.8884 982.808 62.8907 988.628 54.1111C993.373 46.9441 999.014 30.1911 985.494 29.2953H985.584Z" fill="white"/>
<path d="M174.948 124.438C174.948 132.501 172.262 140.205 172.799 148.268C173.516 159.287 179.783 171.113 180.589 182.67C181.484 195.66 176.649 209.009 177.276 221.551C177.724 231.406 182.29 242.067 183.812 251.653C185.334 261.238 184.349 270.735 185.066 280.41C185.692 288.832 194.377 320.098 191.154 325.383C190.527 326.369 185.155 329.684 183.364 332.013C178.082 338.643 176.202 348.408 177.545 356.739C177.903 359.069 185.155 374.836 186.498 376.09C190.617 380.032 196.436 377.344 197.332 377.972C197.958 378.509 201.987 389.976 203.689 392.754C212.284 406.64 225.266 408.252 236.1 418.107C239.412 421.063 246.575 428.32 242.456 432.799C235.831 439.966 181.932 434.412 168.95 435.308C158.474 436.025 147.551 439.339 137.076 439.877C122.303 421.063 110.216 400.637 97.2333 380.659C94.5473 376.538 90.3392 372.865 88.1009 368.744C83.9823 361.129 81.2963 329.594 80.7591 319.471C80.2219 308.362 82.1021 297.432 81.8335 286.323C99.203 278.798 94.9054 258.999 88.7276 244.844C86.6683 240.185 77.8045 228.539 77.4464 226.03C76.8197 221.641 79.058 211.428 78.5208 205.067C77.4464 190.912 70.5523 176.22 69.657 161.706C70.2837 156.241 79.6847 159.019 82.9975 158.212C91.0555 156.241 100.277 151.224 110.126 151.135C115.677 151.135 118.9 154.181 125.347 151.941C126.779 151.493 127.585 149.881 128.391 149.522C131.346 148.358 131.614 152.479 133.047 143.61L137.165 143.251C137.971 135.995 148.357 134.83 150.774 128.021L174.948 124.438Z" fill="white"/>
<path d="M134.927 1.4469e-05V3.31477C142.09 -1.97092 149.521 0.17919 158.206 1.07507L154.893 3.31477C162.145 2.59807 171.546 2.15013 178.619 3.76271C181.484 4.38982 184.081 8.33169 189.005 8.69005C191.243 8.86922 193.213 7.61499 195.452 7.70458C202.793 7.97334 209.777 8.42128 217.119 8.86922L215.955 11.1089C220.521 12.9903 223.296 8.06293 227.684 11.1089L228.668 8.95881L234.846 11.1985L231.533 13.4382H237.085L233.772 9.0484C240.218 9.85469 246.754 8.60046 253.201 9.0484C278.718 10.7506 294.386 10.7506 319.813 9.0484C330.557 8.33169 346.942 11.4673 358.671 12.3632C363.595 12.7215 361.984 14.782 359.119 17.2905C352.672 23.1137 344.256 26.4285 338.168 34.0434C334.407 38.7916 333.512 43.271 330.826 47.84C328.409 51.8714 327.782 50.7068 325.633 56.0821C324.559 58.7697 309.338 63.0699 305.399 64.5033C291.521 69.3411 276.927 72.5663 263.766 78.3895C257.14 81.3459 253.827 80.3604 249.082 81.4355C246.933 81.8834 240.129 89.2296 235.562 85.7357C233.235 80.0916 229.653 75.4331 226.072 70.6849C224.46 68.5348 224.55 68.4452 222.222 65.7576C218.909 61.9949 195.093 37.5374 192.407 37.9853C182.021 49.6317 171.277 69.5203 169.666 85.1982C169.308 88.2441 170.114 98.6363 169.308 99.8906C169.129 100.159 163.488 103.116 163.13 103.205C161.787 103.474 160.265 102.309 159.728 102.489C159.28 102.668 154.445 108.133 153.192 108.939C151.491 110.104 148.894 110.193 146.566 111.627C143.164 113.777 138.24 122.556 134.032 125.065C138.508 127.842 136.539 131.246 134.837 135.367L69.6571 156.689C69.9257 145.939 71.7163 135.815 70.7314 125.065C69.478 111.358 66.7024 101.862 66.3443 87.3483C65.8966 70.5057 69.0303 63.8762 55.0631 51.8714C40.2006 39.1499 13.5196 30.2807 1.79071 13.9757C-2.86503 7.5254 2.23838 4.92735 8.41618 3.94188C31.3367 1.45882e-05 46.9156 8.06293 67.8664 6.8087C78.4313 6.18158 88.8172 2.41889 99.8298 5.55447L134.927 1.4469e-05Z" fill="white"/>
<path d="M765.69 329.684C765.69 329.684 767.391 329.863 767.57 330.669C771.062 347.243 766.675 368.296 768.644 384.959C769.898 395.531 784.044 400.458 791.565 406.998C793.893 408.969 796.221 412.911 799.175 415.419C804.995 420.347 818.604 426.707 822.275 430.918C823.349 432.172 823.17 432.71 822.991 434.322C810.188 431.993 797.743 436.293 784.671 435.487C761.034 433.964 740.441 430.201 715.82 430.918C710.179 431.097 702.479 433.337 697.018 433.247C688.781 433.247 678.574 429.395 670.337 428.768C652.251 427.245 633.359 431.008 615.453 425.364C613.841 423.124 622.526 419.003 623.69 416.405C625.57 412.284 624.137 407.446 628.793 403.773C633.718 399.831 653.683 394.545 661.294 390.783C664.786 389.08 679.827 380.659 681.081 378.42C685.199 371.611 680.902 364.175 680.723 357.098C680.723 351.364 683.229 346.616 680.723 340.972L685.199 339.897L680.902 338.105C681.17 326.817 677.678 315.081 678.574 303.793C679.2 295.73 682.334 287.488 680.723 278.798H685.199C681.081 272.795 684.125 264.464 691.377 263.299C700.151 261.866 709.105 266.883 719.132 266.614C732.921 266.166 748.947 263.209 762.377 263.209C768.465 263.209 773.031 267.778 773.031 273.781C773.031 277.364 770.435 295.999 769.271 299.045C768.018 302.449 764.526 304.778 764.168 306.212C763.72 308.183 765.958 318.485 766.227 321.621C766.406 323.771 765.063 328.25 765.511 329.594L765.69 329.684Z" fill="white"/>
<path d="M99.4716 443.192C91.9508 444.804 84.43 446.865 76.7301 447.671C71.8953 448.119 65.628 446.865 61.2408 447.671C56.4956 448.567 53.0933 456.54 44.5876 449.911C24.7112 434.322 56.5851 420.078 64.5536 408.7C68.8512 402.608 71.8953 391.41 75.208 384.332C77.0882 382.63 81.2068 390.872 82.2812 392.216L99.5611 443.192H99.4716Z" fill="white"/>
</g>
<defs>
<clipPath id="clip0_22600_280">
<rect width="994" height="452.509" fill="white"/>
</clipPath>
</defs>
</svg>

<svg xmlns="http://www.w3.org/2000/svg" width="994" height="453" fill="none"><g fill="#fff" clip-path="url(#a)"><path d="M985.584 29.295c-18.175-1.254-39.395 3.405-58.734 1.882-9.222-.717-18.533-5.017-27.666-5.644-17.369-1.165-36.44 4.658-54.436 3.314-2.507-.179-5.014-.627-7.521-1.164-2.776 5.375-4.656 11.198-5.999 17.111.537 1.075 1.343 2.15 2.06 3.315 3.581 5.823 9.311 10.123 12.892 15.946 2.149 3.405 7.342 14.603 6.357 18.187-1.074 3.852-18.175 22.665-22.204 27.772-4.029 5.196-6.805 11.378-11.192 16.574-9.311 11.019-23.457 19.172-32.769 30.549-10.833 13.259-23.01 39.15-38.052 47.392-2.775 1.523-6.357 3.405-9.132.896-9.849-12.184-18.354-28.399-29.457-39.419-11.37-11.288-19.697-17.469-26.322-32.968-6.447-15.051-11.729-16.305-19.34-29.026-8.505-14.335-22.293-43.988-10.385-58.501 6.894-8.332 10.743-8.422 19.697-11.378 2.059-.717 3.402-3.136 4.924-5.196.179-3.494.269-6.988.09-10.482-4.477-.537-8.864-.806-13.341-1.075l-.179.358s-.895-.358-1.253-.447c-2.507-.18-5.104-.27-7.611-.359l.448.896c-2.149-.358-4.119-.18-5.551-1.075-1.433 0-2.955-.09-4.387-.18-.09.538-.269 1.255-.716 1.345-2.06.448-3.94-.986-5.91-1.165.09-.18.179-.269.269-.448-.627 0-1.254 0-1.97-.09.358.538.627 1.165.537 1.613-2.775 1.165-4.208-.537-5.103-1.881-15.489-.986-30.71-3.046-45.304-9.228h-3.492c-15.758.627-19.16.717-34.649-1.881-8.058-1.344-16.743-1.165-25.069.448h-.717c.537 0-.716-.09-.626-.09-.448 0-.627.09-.985.18-.358 0-.627.089-.985.178-1.254.18-2.418.448-3.582.628-2.417.448-4.924.895-7.341 1.343-4.835.807-9.759 1.792-14.594 2.509-2.776.448-5.462.896-8.237 1.254.537 0 1.074-.18 1.611-.18-4.476.628-8.953 1.345-13.43 1.972-6.088.806-12.176 1.523-18.175 2.06-.627 0-1.164.18-1.791.27-.895.178-1.611.626-2.238 1.164-1.074.806-2.149 2.06-2.328 3.404-.268 1.523-.537 3.136-.806 4.659-.089.716-.268 1.433-.358 2.24-.179 1.164-.537 2.418-.537 3.583 0 2.06.806 4.121 2.238 5.554 1.254 1.255 2.686 1.792 4.298 2.42 1.432.537 2.955 1.164 4.387 1.701 3.313 1.344 6.626 2.599 10.028 3.853-.985 5.017-4.477 12.273-5.014 16.842-1.343 11.468 0 20.337-2.865 32.61-4.298 18.635-12.266 40.852-17.728 59.935-6.715 23.561-15.758 48.467-21.13 72.207-1.701 7.347-7.7 55.724-11.281 56.71-.806.179-2.954.179-3.581-.269-10.117-22.755-14.952-47.75-23.816-71.133-4.387-11.646-11.46-22.845-16.027-35.029-7.341-19.261-10.833-39.687-17.548-59.128-3.94-11.467-9.938-21.949-13.878-33.327L243.71 106.7c2.865 9.765 7.968 18.993 11.908 28.579 4.118 10.034 3.85 19.261 7.252 29.474 2.686 8.242 9.58 15.768 13.251 23.383 7.252 15.23 9.132 32.699 14.863 48.467 2.865 7.794 7.162 14.513 9.669 22.486 3.85 12.453 4.387 24.906 9.133 37.448 1.611 4.3 4.476 8.332 6.088 12.722.985 2.687 2.149 12.184 3.76 12.542l6.178-.806c-7.968 5.017-9.222 14.961 0 18.903l-2.059 1.164v1.434c4.297 10.84 17.727 32.431 17.638 43.45 0 12.005-31.695 31.177-7.252 33.864 20.145 2.24 36.619-6.002 55.51-4.479 15.669 1.254 21.847.269 36.62 0 6.894-.09 17.548 2.329 24.442 2.239 7.79-.179 17.549-2.777 25.517-3.314 6.447-.448 12.983.806 19.429 0 5.193-6.003-21.667-21.591-25.517-24.995-20.324-17.828-2.776-31.535 1.164-52.141 1.612-8.51 1.791-17.559 3.313-26.159H445.16c-8.147 0-12.445 5.554-18.891 6.629-16.295 2.509-34.65 3.763-51.303 5.376-1.612.179-2.865 1.164-2.507-1.344 1.433-2.957 41.812-18.993 48.079-21.86 7.521-3.404 15.4-6.36 22.563-9.586 8.506-3.852 28.651-16.484 36.44-17.021 1.791-.09 3.402.448 4.924 1.164 4.477-14.155 5.73-28.937 8.148-43.539.716-4.211 4.029-14.245 4.029-17.022 0-2.24-3.492-7.526-4.029-11.378-.448-3.225-.716-7.346 0-10.571 2.149-10.303 16.205-10.572 17.28-13.797 1.97-13.348 1.343-26.966 4.297-40.135 4.029-18.455 10.028-33.416 17.191-50.528 4.566-10.75 5.103-22.755 7.61-34.043 7.79 9.227 17.191 17.56 24.174 27.414 7.879 11.109 12.535 24.726 20.772 35.835 13.878 18.634 29.635 37.448 43.603 56.351 7.879 10.75 12.266 24.636 20.324 35.118 6.983 9.138 15.758 15.678 22.92 25.981 1.702 2.419 4.925 10.123 5.999 11.198 2.149 2.061 7.163.986 10.028 1.613 2.775.627 5.551 3.404 8.237 3.942 8.147 1.702 27.308-3.315 35.634-6.092 3.134-1.075 5.909-3.942 8.774-4.569 3.224-.627 7.879.985 9.133.358 2.059-.985 2.686-5.017 4.477-6.629.984-.896 20.234-12.005 22.473-12.991 11.997-5.554 27.665-7.435 39.573-13.707 9.043-10.84 16.027-23.293 23.995-34.849 2.239-3.226 11.371-12.722 12.177-14.603.537-1.254-.985-8.153-.09-12.274 1.075-5.106 8.954-14.603 13.878-16.126 2.865-.895 7.252.18 8.685-.716.268-.179 1.432-2.688 2.417-3.673 6.088-6.182 13.072-12.184 19.697-15.768 4.029-2.15 3.224-3.942 3.671-8.063l2.776 3.315c9.58-8.69 14.773-18.993 25.785-26.428 3.224-2.24 31.427-18.366 33.396-18.814 8.506-2.24 21.309 3.763 27.129-5.017 4.745-7.167 10.386-23.92-3.134-24.816zm-810.636 95.143c0 8.063-2.686 15.767-2.149 23.83.717 11.019 6.984 22.845 7.79 34.402.895 12.99-3.94 26.339-3.313 38.881.448 9.855 5.014 20.516 6.536 30.102 1.522 9.585.537 19.082 1.254 28.757.626 8.422 9.311 39.688 6.088 44.973-.627.986-5.999 4.301-7.79 6.63-5.282 6.63-7.162 16.395-5.819 24.726.358 2.33 7.61 18.097 8.953 19.351 4.119 3.942 9.938 1.254 10.834 1.882.626.537 4.655 12.004 6.357 14.782 8.595 13.886 21.577 15.498 32.411 25.353 3.312 2.956 10.475 10.213 6.356 14.692-6.625 7.167-60.524 1.613-73.506 2.509-10.476.717-21.399 4.031-31.874 4.569-14.773-18.814-26.86-39.24-39.843-59.218-2.686-4.121-6.894-7.794-9.132-11.915-4.119-7.615-6.805-39.15-7.342-49.273-.537-11.109 1.343-22.039 1.075-33.148 17.369-7.525 13.071-27.324 6.894-41.479-2.06-4.659-10.923-16.305-11.282-18.814-.626-4.389 1.612-14.602 1.075-20.963-1.075-14.155-7.969-28.847-8.864-43.361.627-5.465 10.028-2.687 13.34-3.494 8.058-1.971 17.28-6.988 27.129-7.077 5.551 0 8.774 3.046 15.221.806 1.432-.448 2.238-2.06 3.044-2.419 2.955-1.164 3.223 2.957 4.656-5.912l4.118-.359c.806-7.256 11.192-8.421 13.609-15.23z"/><path d="M134.927 0v3.315c7.163-5.286 14.594-3.136 23.279-2.24l-3.313 2.24c7.252-.717 16.653-1.165 23.726.448 2.865.627 5.462 4.569 10.386 4.927 2.238.18 4.208-1.075 6.447-.985 7.341.268 14.325.716 21.667 1.164l-1.164 2.24c4.566 1.881 7.341-3.046 11.729 0l.984-2.15 6.178 2.24-3.313 2.24h5.552l-3.313-4.39c6.446.806 12.982-.449 19.429 0 25.517 1.702 41.185 1.702 66.612 0 10.744-.717 27.129 2.418 38.858 3.314 4.924.359 3.313 2.419.448 4.928-6.447 5.823-14.863 9.138-20.951 16.752-3.761 4.749-4.656 9.228-7.342 13.797-2.417 4.031-3.044 2.867-5.193 8.242-1.074 2.688-16.295 6.988-20.234 8.421-13.878 4.838-28.472 8.063-41.633 13.886-6.626 2.957-9.939 1.971-14.684 3.047-2.149.447-8.953 7.794-13.52 4.3-2.327-5.644-5.909-10.303-9.49-15.051-1.612-2.15-1.522-2.24-3.85-4.927-3.313-3.763-27.129-28.22-29.815-27.773-10.386 11.647-21.13 31.535-22.741 47.213-.358 3.046.448 13.438-.358 14.693-.179.268-5.82 3.225-6.178 3.314-1.343.269-2.865-.896-3.402-.716-.448.179-5.283 5.644-6.536 6.45-1.701 1.165-4.298 1.254-6.626 2.688-3.402 2.15-8.326 10.929-12.534 13.438 4.476 2.777 2.507 6.181.805 10.302l-65.18 21.322c.269-10.75 2.06-20.874 1.074-31.624-1.253-13.707-4.029-23.203-4.387-37.717-.447-16.842 2.686-23.472-11.28-35.477C40.2 39.15 13.52 30.281 1.79 13.976c-4.656-6.45.447-9.049 6.625-10.034 22.92-3.942 38.5 4.12 59.45 2.867 10.565-.627 20.951-4.39 31.964-1.255zM765.69 329.684s1.701.179 1.88.985c3.492 16.574-.895 37.627 1.074 54.29 1.254 10.572 15.4 15.499 22.921 22.039 2.328 1.971 4.656 5.913 7.61 8.421 5.82 4.928 19.429 11.288 23.1 15.499 1.074 1.254.895 1.792.716 3.404-12.803-2.329-25.248 1.971-38.32 1.165-23.637-1.523-44.23-5.286-68.851-4.569-5.641.179-13.341 2.419-18.802 2.329-8.237 0-18.444-3.852-26.681-4.479-18.086-1.523-36.978 2.24-54.884-3.404-1.612-2.24 7.073-6.361 8.237-8.959 1.88-4.121.447-8.959 5.103-12.632 4.925-3.942 24.89-9.228 32.501-12.99 3.492-1.703 18.533-10.124 19.787-12.363 4.118-6.809-.179-14.245-.358-21.322 0-5.734 2.506-10.482 0-16.126l4.476-1.075-4.297-1.792c.268-11.288-3.224-23.024-2.328-34.312.626-8.063 3.76-16.305 2.149-24.995h4.476c-4.118-6.003-1.074-14.334 6.178-15.499 8.774-1.433 17.728 3.584 27.755 3.315 13.789-.448 29.815-3.405 43.245-3.405 6.088 0 10.654 4.569 10.654 10.572 0 3.583-2.596 22.218-3.76 25.264-1.253 3.404-4.745 5.733-5.103 7.167-.448 1.971 1.79 12.273 2.059 15.409.179 2.15-1.164 6.629-.716 7.973zM99.472 443.192c-7.521 1.612-15.042 3.673-22.742 4.479-4.835.448-11.102-.806-15.49 0-4.744.896-8.147 8.869-16.652 2.24-19.877-15.589 11.997-29.833 19.966-41.211 4.297-6.092 7.341-17.29 10.654-24.368 1.88-1.702 5.999 6.54 7.073 7.884l17.28 50.976z"/></g><defs><clipPath id="a"><path fill="#fff" d="M0 0h994v452.509H0z"/></clipPath></defs></svg>
